X: 21252
Q: "Lively."
M: 6/8
L: 1/8
K: G
EG2 G2A | B>dB {B}A2B |\
c>de d>BG | B<AG E2D |\
E>GG HG2A | B<dB A2B |
c>de d>BG | A2E F2E/D/ |\
d<dB A>BG | E>DF G2 |]


